X:2015
T:Bonny Green Garters
R:Jig
C:Trad. Morris
O:Headington England
P:A.(AB)4
M:6/8
L:1/8
Q:1/8=180
K:G
P:A
d|:"G"d>cB AGF|"C" G>AB cde|"G" d2d dcB|1"D"B3 A2 d:|2"D"A3 G2||
P:B
d|"G"d>cB AGF|"C"G3 A2 "D"d|"G"d>cB AGF|"Em" G3 A2 d|
"G"d>cB AGF|"C"G>AB cde|"G"ded dcB|"D"A3 "G"G2|]

